public/images/sidebar/apps.svg

<svg width="16" height="16" viewBox="0 0 16 16" fill="none" xmlns="http://www.w3.org/2000/svg">
<path fill-rule="evenodd" clip-rule="evenodd" d="M5.99998 1.33333H2.66665C1.93027 1.33333 1.33331 1.93029 1.33331 2.66667V6C1.33331 6.73638 1.93027 7.33333 2.66665 7.33333H5.99998C6.73636 7.33333 7.33331 6.73638 7.33331 6V2.66667C7.33331 1.93029 6.73636 1.33333 5.99998 1.33333ZM2.66665 6V2.66667H5.99998V6H2.66665Z" fill="#121312" fill-opacity="0.87"/>
<path fill-rule="evenodd" clip-rule="evenodd" d="M13.3333 8.66667H9.99996C9.26358 8.66667 8.66663 9.26362 8.66663 10V13.3333C8.66663 14.0697 9.26358 14.6667 9.99996 14.6667H13.3333C14.0697 14.6667 14.6666 14.0697 14.6666 13.3333V10C14.6666 9.26362 14.0697 8.66667 13.3333 8.66667ZM9.99996 13.3333V10H13.3333V13.3333H9.99996Z" fill="#121312" fill-opacity="0.87"/>
<path fill-rule="evenodd" clip-rule="evenodd" d="M14.6666 4.33333C14.6666 5.99019 13.3235 7.33333 11.6666 7.33333C10.0098 7.33333 8.66663 5.99019 8.66663 4.33333C8.66663 2.67648 10.0098 1.33333 11.6666 1.33333C13.3235 1.33333 14.6666 2.67648 14.6666 4.33333ZM9.99996 4.33333C9.99996 5.25381 10.7462 6 11.6666 6C12.5871 6 13.3333 5.25381 13.3333 4.33333C13.3333 3.41286 12.5871 2.66667 11.6666 2.66667C10.7462 2.66667 9.99996 3.41286 9.99996 4.33333Z" fill="#121312" fill-opacity="0.87"/>
<path fill-rule="evenodd" clip-rule="evenodd" d="M4.33416 12.5727L2.42422 14.4826C2.17622 14.7306 1.77089 14.7306 1.52222 14.4826L1.51956 14.4793C1.27156 14.2313 1.27156 13.8253 1.51956 13.5766L3.42889 11.6673L1.51982 9.75793C1.27182 9.50993 1.27182 9.10393 1.51982 8.85593L1.52249 8.85259C1.77116 8.60459 2.17649 8.60459 2.42449 8.85259L4.33416 10.762L6.24356 8.85259C6.49156 8.60459 6.89756 8.60459 7.14556 8.85259L7.14889 8.85593C7.39689 9.10393 7.39689 9.50993 7.14889 9.75793L5.23956 11.6673L7.14916 13.5766C7.39716 13.8253 7.39716 14.2313 7.14916 14.4793L7.14582 14.4826C6.89782 14.7306 6.49182 14.7306 6.24382 14.4826L4.33416 12.5727Z" fill="#121312" fill-opacity="0.87"/>
</svg>

<svg width="16" height="16" fill="none" xmlns="http://www.w3.org/2000/svg"><path fill-rule="evenodd" clip-rule="evenodd" d="M6 1.333H2.667c-.737 0-1.334.597-1.334 1.334V6c0 .736.597 1.333 1.334 1.333H6c.736 0 1.333-.597 1.333-1.333V2.667c0-.737-.597-1.334-1.333-1.334zM2.667 6V2.667H6V6H2.667zM13.333 8.667H10c-.736 0-1.333.597-1.333 1.333v3.333c0 .737.597 1.334 1.333 1.334h3.333c.737 0 1.334-.597 1.334-1.334V10c0-.736-.597-1.333-1.334-1.333zM10 13.333V10h3.333v3.333H10zM14.667 4.333a3 3 0 11-6 0 3 3 0 016 0zm-4.667 0a1.667 1.667 0 103.333 0 1.667 1.667 0 00-3.333 0zM4.334 12.573l-1.91 1.91a.64.64 0 01-.902 0l-.002-.004a.64.64 0 010-.902l1.909-1.91-1.91-1.91a.64.64 0 010-.901l.004-.003a.64.64 0 01.902 0l1.91 1.909 1.909-1.91a.64.64 0 01.902 0l.003.004a.64.64 0 010 .902l-1.91 1.91 1.91 1.909a.64.64 0 010 .902l-.003.004a.64.64 0 01-.902 0l-1.91-1.91z" fill="#162D45"/></svg>
